;FLAVOR:Marlin
;TIME:5101
;Filament used: 3.19922m
;Layer height: 0.15
;MINX:100.435
;MINY:67.771
;MINZ:0.2
;MAXX:182.275
;MAXY:145.527
;MAXZ:6.05
;Generated with Cura_SteamEngine 5.4.0
M82 ;absolute extrusion mode
G21 ; set units to millimeters
G90 ; use absolute positioning
M82 ; absolute extrusion mode
M104 S220.0 ; set extruder temp
M140 S80 ; set bed temp
M190 S80 ; wait for bed temp
M109 S220.0 ; wait for extruder temp
G28 W ; home all without mesh bed level
G80 ; mesh bed leveling
G92 E0.0 ; reset extruder distance position
G1 Y-3.0 F1000.0 ; go outside print area
G1 X60.0 E9.0 F1000.0 ; intro line
G1 X100.0 E21.5 F1000.0 ; intro line
G92 E0.0 ; reset extruder distance position
G92 E0
G92 E0
G1 F2100 E-0.8
;LAYER_COUNT:40
;LAYER:0
M107
G0 F3600 X101.884 Y70.995 Z0.2
;TYPE:SKIRT
G1 F2100 E0
G1 F1800 X102.918 Y69.902 E0.05004
G1 X103.982 Y69.04 E0.09559
G1 X105.985 Y68.049 E0.16992
G1 X107.859 Y67.8 E0.23279
G1 X110.689 Y67.772 E0.32692
G1 X112.282 Y67.779 E0.37991
G1 X130.204 Y67.78 E0.976
G1 X131.854 Y67.771 E1.03088
G1 X135.043 Y67.777 E1.13694
G1 X137.024 Y68.252 E1.2047
G1 X138.707 Y69.198 E1.26891
G1 X139.627 Y69.887 E1.30714
G1 X140.783 Y71.311 E1.36815
G1 X141.776 Y73.316 E1.44256
G1 X142.019 Y75.165 E1.50459
G1 X142.043 Y80.414 E1.67917
G1 X141.257 Y82.959 E1.76777
G1 X140.232 Y84.567 E1.83119
G1 X139.242 Y85.768 E1.88296
G1 X138.043 Y86.715 E1.93377
G1 X137.979 Y136.895 E3.60277
G1 X137.668 Y138.61 E3.66074
G1 X137.173 Y140.064 E3.71183
G1 X136.263 Y141.531 E3.76924
G1 X135.283 Y142.75 E3.82127
G1 X133.524 Y144.114 E3.8953
G1 X131.946 Y144.79 E3.9524
G1 X130.237 Y145.233 E4.01112
G1 X128.724 Y145.379 E4.06167
G1 X112.648 Y145.293 E4.59637
G1 X111.279 Y145.08 E4.64245
G1 X109.564 Y144.374 E4.70414
G1 X108.344 Y143.695 E4.75058
G1 X106.872 Y142.395 E4.81589
G1 X105.777 Y140.939 E4.87649
G1 X104.949 Y139.216 E4.94007
G1 X104.644 Y137.967 E4.98283
G1 X104.455 Y136.332 E5.03757
G1 X104.444 Y86.736 E6.68714
G1 X104.227 Y86.596 E6.69573
G1 X102.893 Y85.41 E6.7551
G1 X101.762 Y83.917 E6.8174
G1 X100.949 Y82.212 E6.88022
G1 X100.444 Y80.203 E6.94912
G1 X100.435 Y77.669 E7.0334
G1 X100.441 Y74.828 E7.1279
G1 X100.829 Y72.97 E7.19103
G1 X101.884 Y70.995 E7.2655
G0 F3600 X102.211 Y71.232
G1 F1800 X103.209 Y70.177 E7.3138
G1 X104.197 Y69.38 E7.35602
G1 X106.103 Y68.437 E7.42675
G1 X107.912 Y68.197 E7.48745
G1 X110.687 Y68.172 E7.57975
G1 X112.28 Y68.179 E7.63273
G1 X130.206 Y68.18 E8.22895
G1 X131.853 Y68.171 E8.28373
G1 X134.996 Y68.177 E8.38827
G1 X136.877 Y68.628 E8.4526
G1 X138.467 Y69.518 E8.51321
G1 X139.347 Y70.177 E8.54977
G1 X140.445 Y71.53 E8.60773
G1 X141.387 Y73.432 E8.67832
G1 X141.622 Y75.217 E8.73821
G1 X141.643 Y80.355 E8.9091
G1 X140.891 Y82.789 E8.99383
G1 X139.923 Y84.313 E9.05388
G1 X138.961 Y85.48 E9.10418
G1 X137.643 Y86.521 E9.16004
G1 X137.579 Y136.894 E10.83546
G1 X137.289 Y138.481 E10.88911
G1 X136.808 Y139.895 E10.93879
G1 X135.951 Y141.28 E10.99296
G1 X134.999 Y142.464 E11.04349
G1 X133.321 Y143.765 E11.11411
G1 X131.788 Y144.422 E11.16958
G1 X130.198 Y144.835 E11.22422
G1 X128.726 Y144.979 E11.27342
G1 X112.71 Y144.898 E11.80612
G1 X111.388 Y144.692 E11.85062
G1 X109.759 Y144.024 E11.90918
G1 X108.575 Y143.365 E11.95425
G1 X107.169 Y142.123 E12.01664
G1 X106.12 Y140.729 E12.07467
G1 X105.328 Y139.081 E12.13548
G1 X105.033 Y137.872 E12.17687
G1 X104.855 Y136.332 E12.22843
G1 X104.844 Y86.51 E13.88552
G1 X104.493 Y86.297 E13.89918
G1 X103.187 Y85.136 E13.9573
G1 X102.106 Y83.708 E14.01687
G1 X101.328 Y82.077 E14.07697
G1 X100.844 Y80.152 E14.14299
G1 X100.835 Y77.67 E14.22554
G1 X100.841 Y74.872 E14.3186
G1 X101.21 Y73.106 E14.37861
G1 X102.211 Y71.232 E14.44927
G0 F3600 X102.538 Y71.469
G1 F1800 X103.5 Y70.452 E14.49583
G1 X104.412 Y69.72 E14.53473
G1 X106.223 Y68.824 E14.60193
G1 X107.916 Y68.597 E14.65874
G1 X110.685 Y68.572 E14.75085
G1 X112.278 Y68.579 E14.80383
G1 X130.208 Y68.58 E15.40018
G1 X131.852 Y68.571 E15.45486
G1 X134.949 Y68.577 E15.55787
G1 X136.731 Y69.004 E15.61882
G1 X138.227 Y69.838 E15.67579
G1 X139.067 Y70.467 E15.71069
G1 X140.109 Y71.751 E15.76569
G1 X140.999 Y73.549 E15.83241
G1 X141.222 Y75.219 E15.88845
G1 X141.243 Y80.296 E16.05732
G1 X140.525 Y82.619 E16.13819
G1 X139.585 Y84.099 E16.1965
G1 X138.68 Y85.192 E16.2437
G1 X137.243 Y86.327 E16.3046
G1 X137.185 Y136.823 E17.98411
G1 X136.91 Y138.352 E18.03578
G1 X136.443 Y139.726 E18.08404
G1 X135.639 Y141.029 E18.13497
G1 X134.715 Y142.178 E18.18401
G1 X133.118 Y143.416 E18.25122
G1 X131.63 Y144.054 E18.30506
G1 X130.159 Y144.437 E18.35562
G1 X128.728 Y144.579 E18.40345
G1 X112.772 Y144.503 E18.93416
G1 X111.495 Y144.304 E18.97714
G1 X109.954 Y143.674 E19.03251
G1 X108.806 Y143.035 E19.07621
G1 X107.463 Y141.849 E19.1358
G1 X106.464 Y140.521 E19.19108
G1 X105.707 Y138.946 E19.2492
G1 X105.422 Y137.777 E19.28922
G1 X105.255 Y136.332 E19.3376
G1 X105.244 Y86.279 E21.00237
G1 X104.759 Y85.998 E21.02101
G1 X103.481 Y84.862 E21.07788
G1 X102.45 Y83.499 E21.13472
G1 X101.707 Y81.942 E21.1921
G1 X101.244 Y80.101 E21.25524
G1 X101.235 Y77.671 E21.33607
G1 X101.241 Y74.916 E21.4277
G1 X101.591 Y73.242 E21.48458
G1 X102.538 Y71.469 E21.55143
G0 F3600 X102.866 Y71.705
G1 F1800 X103.791 Y70.727 E21.59621
G1 X104.627 Y70.06 E21.63178
G1 X106.343 Y69.211 E21.69546
G1 X107.92 Y68.997 E21.74839
G1 X110.683 Y68.972 E21.84029
G1 X112.276 Y68.979 E21.89327
G1 X130.21 Y68.98 E22.48976
G1 X131.851 Y68.971 E22.54434
G1 X134.902 Y68.977 E22.64582
G1 X136.584 Y69.38 E22.70335
G1 X137.987 Y70.158 E22.7567
G1 X138.787 Y70.757 E22.78994
G1 X139.771 Y71.97 E22.84189
G1 X140.612 Y73.668 E22.90492
G1 X140.822 Y75.221 E22.95704
G1 X140.843 Y80.237 E23.12387
G1 X140.159 Y82.449 E23.20088
G1 X139.247 Y83.885 E23.25746
G1 X138.4 Y84.903 E23.30151
G1 X137.065 Y85.958 E23.3581
G1 X136.843 Y86.078 E23.3665
G1 X136.791 Y136.752 E25.05192
G1 X136.516 Y138.281 E25.10359
G1 X136.079 Y139.554 E25.14836
G1 X135.327 Y140.778 E25.19614
G1 X134.431 Y141.892 E25.24369
G1 X132.914 Y143.068 E25.30753
G1 X131.528 Y143.667 E25.35775
G1 X130.119 Y144.039 E25.40622
G1 X128.73 Y144.179 E25.45265
G1 X112.834 Y144.108 E25.98136
G1 X111.602 Y143.916 E26.02283
G1 X110.148 Y143.324 E26.07504
G1 X109.039 Y142.707 E26.11725
G1 X107.76 Y141.577 E26.17402
G1 X106.807 Y140.311 E26.22672
G1 X106.086 Y138.811 E26.28208
G1 X105.811 Y137.682 E26.32072
G1 X105.655 Y136.332 E26.36592
G1 X105.644 Y86.044 E28.03851
G1 X105.025 Y85.699 E28.06208
G1 X103.775 Y84.588 E28.1177
G1 X102.794 Y83.29 E28.17182
G1 X102.085 Y81.806 E28.22652
G1 X101.644 Y80.051 E28.28671
G1 X101.635 Y77.672 E28.36583
G1 X101.641 Y74.96 E28.45603
G1 X101.971 Y73.38 E28.50972
G1 X102.866 Y71.705 E28.57288
G0 F3600 X103.195 Y71.939
G1 F1800 X104.041 Y71.04 E28.61394
G1 X104.844 Y70.399 E28.64812
G1 X106.463 Y69.598 E28.70819
G1 X107.924 Y69.397 E28.75724
G1 X110.681 Y69.372 E28.84895
G1 X112.274 Y69.379 E28.90193
G1 X130.212 Y69.38 E29.49855
G1 X131.85 Y69.371 E29.55303
G1 X134.855 Y69.377 E29.65298
G1 X136.439 Y69.756 E29.70715
G1 X137.747 Y70.478 E29.75684
G1 X138.507 Y71.047 E29.78842
G1 X139.435 Y72.191 E29.83741
G1 X140.224 Y73.785 E29.89657
G1 X140.422 Y75.223 E29.94485
G1 X140.443 Y80.178 E30.10965
G1 X139.793 Y82.279 E30.1828
G1 X138.939 Y83.629 E30.23593
G1 X138.118 Y84.616 E30.27863
G1 X136.817 Y85.644 E30.33378
G1 X136.443 Y85.829 E30.34766
G1 X136.397 Y136.683 E32.03907
G1 X136.138 Y138.151 E32.08865
G1 X135.716 Y139.381 E32.1319
G1 X135.015 Y140.527 E32.17658
G1 X134.147 Y141.606 E32.22264
G1 X132.711 Y142.72 E32.28309
G1 X131.426 Y143.28 E32.32971
G1 X130.017 Y143.652 E32.37818
G1 X128.732 Y143.779 E32.42113
G1 X112.896 Y143.713 E32.94784
G1 X111.711 Y143.528 E32.98773
G1 X110.342 Y142.974 E33.03685
G1 X109.272 Y142.379 E33.07757
G1 X108.054 Y141.303 E33.13163
G1 X107.149 Y140.1 E33.1817
G1 X106.466 Y138.68 E33.23411
G1 X106.2 Y137.587 E33.27152
G1 X106.055 Y136.332 E33.31354
G1 X106.044 Y85.809 E34.99394
G1 X105.26 Y85.372 E35.02379
G1 X104.069 Y84.314 E35.07678
G1 X103.138 Y83.082 E35.12814
G1 X102.464 Y81.671 E35.18015
G1 X102.044 Y80 E35.23746
G1 X102.035 Y77.673 E35.31485
G1 X102.041 Y75.004 E35.40362
G1 X102.351 Y73.518 E35.45411
G1 X103.195 Y71.939 E35.51366
G0 F3600 X103.524 Y72.172
G1 F1800 X104.29 Y71.353 E35.55096
G1 X105.062 Y70.737 E35.58381
G1 X106.581 Y69.985 E35.64018
G1 X107.928 Y69.797 E35.68542
G1 X110.679 Y69.772 E35.77692
G1 X112.272 Y69.779 E35.82991
G1 X130.214 Y69.78 E36.42666
G1 X131.849 Y69.771 E36.48104
G1 X134.808 Y69.777 E36.57946
G1 X136.293 Y70.132 E36.63024
G1 X137.507 Y70.798 E36.67629
G1 X138.227 Y71.337 E36.70621
G1 X139.099 Y72.412 E36.75225
G1 X139.837 Y73.903 E36.80758
G1 X140.022 Y75.225 E36.85198
G1 X140.043 Y80.119 E37.01476
G1 X139.427 Y82.108 E37.08401
G1 X138.631 Y83.373 E37.13372
G1 X137.836 Y84.329 E37.17508
G1 X136.569 Y85.33 E37.22878
G1 X136.043 Y85.573 E37.24805
G1 X136.003 Y136.615 E38.94572
G1 X135.76 Y138.021 E38.99317
G1 X135.353 Y139.207 E39.03488
G1 X134.703 Y140.276 E39.07649
G1 X133.863 Y141.32 E39.12106
G1 X132.507 Y142.372 E39.17814
G1 X131.266 Y142.913 E39.22317
G1 X129.916 Y143.265 E39.26957
G1 X128.734 Y143.379 E39.30907
G1 X112.958 Y143.318 E39.83378
G1 X111.82 Y143.14 E39.87209
G1 X110.492 Y142.603 E39.91974
G1 X109.506 Y142.052 E39.9573
G1 X108.348 Y141.029 E40.0087
G1 X107.492 Y139.89 E40.05608
G1 X106.845 Y138.546 E40.1057
G1 X106.589 Y137.493 E40.14174
G1 X106.455 Y136.332 E40.18061
G1 X106.444 Y85.574 E41.86883
G1 X105.494 Y85.045 E41.90499
G1 X104.363 Y84.04 E41.95532
G1 X103.482 Y82.874 E42.00392
G1 X102.843 Y81.536 E42.05324
G1 X102.444 Y79.949 E42.10767
G1 X102.435 Y77.674 E42.18333
G1 X102.441 Y75.048 E42.27068
G1 X102.731 Y73.656 E42.31797
G1 X103.524 Y72.172 E42.37393
G0 F3600 X103.852 Y72.406
G1 F1800 X104.54 Y71.666 E42.40754
G1 X105.283 Y71.073 E42.43916
G1 X106.699 Y70.372 E42.49171
G1 X107.932 Y70.197 E42.53313
G1 X110.677 Y70.172 E42.62443
G1 X112.27 Y70.179 E42.67741
G1 X130.216 Y70.18 E43.2743
G1 X131.848 Y70.171 E43.32858
G1 X134.761 Y70.177 E43.42547
G1 X136.147 Y70.508 E43.47286
G1 X137.315 Y71.149 E43.51718
G1 X137.946 Y71.626 E43.54349
G1 X138.761 Y72.631 E43.58652
G1 X139.45 Y74.022 E43.63815
G1 X139.622 Y75.227 E43.67864
G1 X139.643 Y80.06 E43.83938
G1 X139.061 Y81.939 E43.90481
G1 X138.323 Y83.117 E43.95104
G1 X137.554 Y84.042 E43.99105
G1 X136.321 Y85.016 E44.04331
G1 X135.643 Y85.31 E44.06789
G1 X135.609 Y136.548 E45.77208
G1 X135.382 Y137.891 E45.81738
G1 X134.99 Y139.032 E45.85751
G1 X134.391 Y140.025 E45.89608
G1 X133.579 Y141.034 E45.93915
G1 X132.303 Y142.024 E45.99287
G1 X131.106 Y142.546 E46.0363
G1 X129.816 Y142.878 E46.08061
G1 X128.735 Y142.979 E46.11672
G1 X113.02 Y142.923 E46.6394
G1 X111.927 Y142.752 E46.6762
G1 X110.687 Y142.254 E46.72064
G1 X109.741 Y141.725 E46.75669
G1 X108.643 Y140.755 E46.80542
G1 X107.835 Y139.68 E46.85015
G1 X107.225 Y138.413 E46.89692
G1 X106.978 Y137.398 E46.93166
G1 X106.855 Y136.332 E46.96736
G1 X106.844 Y85.338 E48.66342
G1 X105.727 Y84.717 E48.70593
G1 X104.657 Y83.766 E48.75354
G1 X103.826 Y82.666 E48.7994
G1 X103.222 Y81.401 E48.84602
G1 X102.844 Y79.898 E48.89757
G1 X102.835 Y77.675 E48.9715
G1 X102.841 Y75.092 E49.05742
G1 X103.112 Y73.792 E49.10158
G1 X103.852 Y72.406 E49.15384
G0 F3600 X104.181 Y72.64
G1 F1800 X104.79 Y71.979 E49.18373
G1 X105.504 Y71.409 E49.21412
G1 X106.817 Y70.759 E49.26285
G1 X107.936 Y70.597 E49.30046
G1 X110.675 Y70.572 E49.39156
G1 X112.268 Y70.579 E49.44454
G1 X130.218 Y70.58 E50.04156
G1 X131.847 Y70.571 E50.09574
G1 X134.714 Y70.577 E50.1911
G1 X136 Y70.884 E50.23508
G1 X137.122 Y71.5 E50.27765
G1 X137.666 Y71.916 E50.30043
G1 X138.423 Y72.85 E50.34041
G1 X139.063 Y74.141 E50.38834
G1 X139.222 Y75.229 E50.42491
G1 X139.243 Y80.001 E50.58363
G1 X138.695 Y81.771 E50.64526
G1 X138.015 Y82.861 E50.68799
G1 X137.272 Y83.755 E50.72665
G1 X136.113 Y84.67 E50.77576
G1 X135.243 Y85.047 E50.8073
G1 X135.209 Y136.548 E52.52023
G1 X135.004 Y137.761 E52.56115
G1 X134.627 Y138.858 E52.59973
G1 X134.048 Y139.818 E52.63701
G1 X133.298 Y140.746 E52.6767
G1 X132.099 Y141.676 E52.72717
G1 X130.946 Y142.179 E52.76901
G1 X129.778 Y142.48 E52.80913
G1 X128.736 Y142.579 E52.84394
G1 X113.082 Y142.528 E53.3646
G1 X112.034 Y142.364 E53.39988
G1 X110.836 Y141.883 E53.44281
G1 X109.977 Y141.399 E53.47561
G1 X108.937 Y140.481 E53.52175
G1 X108.178 Y139.47 E53.56379
G1 X107.604 Y138.279 E53.60777
G1 X107.367 Y137.304 E53.64114
G1 X107.255 Y136.332 E53.67368
G1 X107.244 Y85.051 E55.3793
G1 X106.911 Y84.917 E55.39123
G1 X105.96 Y84.389 E55.42741
G1 X104.951 Y83.492 E55.47232
G1 X104.17 Y82.458 E55.51541
G1 X103.601 Y81.266 E55.55935
G1 X103.244 Y79.847 E55.60801
G1 X103.235 Y77.676 E55.68022
G1 X103.241 Y75.136 E55.7647
G1 X103.493 Y73.928 E55.80575
G1 X104.181 Y72.64 E55.85431
G0 F3600 X104.511 Y72.872
G1 F1800 X105.039 Y72.292 E55.8804
G1 X105.722 Y71.747 E55.90946
G1 X106.934 Y71.147 E55.95444
G1 X107.94 Y70.997 E55.98827
G1 X110.673 Y70.972 E56.07918
G1 X112.266 Y70.979 E56.13216
G1 X130.22 Y70.98 E56.72931
G1 X131.846 Y70.971 E56.78339
G1 X134.667 Y70.977 E56.87722
G1 X135.856 Y71.261 E56.91788
G1 X136.879 Y71.818 E56.95662
G1 X137.385 Y72.205 E56.97781
G1 X138.085 Y73.069 E57.01479
G1 X138.676 Y74.26 E57.05902
G1 X138.826 Y75.287 E57.09354
G1 X138.843 Y79.942 E57.24836
G1 X138.329 Y81.602 E57.30616
G1 X137.707 Y82.605 E57.34542
G1 X136.99 Y83.468 E57.38273
G1 X135.906 Y84.324 E57.42867
G1 X134.843 Y84.784 E57.4672
G1 X134.809 Y136.548 E59.18887
G1 X134.626 Y137.631 E59.22541
G1 X134.264 Y138.684 E59.26244
G1 X133.705 Y139.611 E59.29844
G1 X133.017 Y140.458 E59.33474
G1 X131.895 Y141.328 E59.38196
G1 X130.786 Y141.812 E59.42221
G1 X129.739 Y142.082 E59.45817
G1 X128.737 Y142.179 E59.49165
G1 X113.144 Y142.133 E60.01028
G1 X112.139 Y141.976 E60.04411
G1 X111.032 Y141.534 E60.08376
G1 X110.21 Y141.071 E60.11513
G1 X109.232 Y140.207 E60.15854
G1 X108.521 Y139.26 E60.19793
G1 X107.984 Y138.146 E60.23906
G1 X107.756 Y137.209 E60.27113
G1 X107.655 Y136.332 E60.30049
G1 X107.644 Y84.778 E62.01519
G1 X107.105 Y84.567 E62.03444
G1 X106.193 Y84.061 E62.06913
G1 X105.245 Y83.218 E62.11132
G1 X104.514 Y82.25 E62.15167
G1 X103.98 Y81.131 E62.1929
G1 X103.644 Y79.796 E62.23869
G1 X103.635 Y77.677 E62.30917
G1 X103.641 Y75.18 E62.39222
G1 X103.873 Y74.066 E62.43007
G1 X104.511 Y72.872 E62.47509
G0 F3600 X104.84 Y73.105
G1 F1800 X105.289 Y72.605 E62.49745
G1 X105.943 Y72.083 E62.52528
G1 X107.052 Y71.534 E62.56644
G1 X107.999 Y71.393 E62.59828
G1 X110.671 Y71.372 E62.68715
G1 X112.264 Y71.379 E62.74014
G1 X130.222 Y71.38 E63.33742
G1 X131.845 Y71.371 E63.3914
G1 X134.62 Y71.377 E63.4837
G1 X135.711 Y71.638 E63.52101
G1 X136.636 Y72.136 E63.55595
G1 X137.104 Y72.494 E63.57555
G1 X137.747 Y73.288 E63.60953
G1 X138.289 Y74.38 E63.65008
G1 X138.43 Y75.345 E63.68252
G1 X138.443 Y79.883 E63.83345
G1 X137.963 Y81.432 E63.88739
G1 X137.399 Y82.349 E63.9232
G1 X136.708 Y83.181 E63.95917
G1 X135.699 Y83.978 E64.00193
G1 X134.443 Y84.521 E64.04745
G1 X134.409 Y136.548 E65.77787
G1 X134.248 Y137.501 E65.81002
G1 X133.901 Y138.51 E65.84551
G1 X133.362 Y139.404 E65.88023
G1 X132.735 Y140.171 E65.91318
G1 X131.691 Y140.98 E65.95711
G1 X130.626 Y141.445 E65.99576
G1 X129.7 Y141.684 E66.02756
G1 X128.738 Y141.779 E66.05972
G1 X113.206 Y141.738 E66.57631
G1 X112.246 Y141.588 E66.60863
G1 X111.228 Y141.185 E66.64505
G1 X110.443 Y140.743 E66.67501
G1 X109.527 Y139.933 E66.71568
G1 X108.864 Y139.05 E66.75241
G1 X108.363 Y138.012 E66.79074
G1 X108.145 Y137.115 E66.82144
G1 X108.055 Y136.332 E66.84766
G1 X108.044 Y84.502 E68.57153
G1 X107.299 Y84.217 E68.59806
G1 X106.426 Y83.733 E68.63126
G1 X105.539 Y82.944 E68.67075
G1 X104.858 Y82.042 E68.70834
G1 X104.359 Y80.996 E68.74688
G1 X104.044 Y79.745 E68.78979
G1 X104.035 Y77.678 E68.85854
G1 X104.041 Y75.224 E68.94016
G1 X104.254 Y74.202 E68.97488
G1 X104.84 Y73.105 E69.01625
G0 F3600 X105.169 Y73.337
G1 F1800 X105.539 Y72.918 E69.03484
G1 X106.164 Y72.419 E69.06144
G1 X107.17 Y71.921 E69.09877
G1 X108.058 Y71.789 E69.12863
G1 X110.669 Y71.772 E69.21548
G1 X112.262 Y71.779 E69.26846
G1 X130.224 Y71.78 E69.86588
